X: 22
T: Morrison's
Z: Zara
S: https://thesession.org/tunes/71#setting51959
R: jig
M: 6/8
L: 1/8
K: Edor
|:E3 B3|EBE AFD|EDE B2 c|dcB AFD|
E3 B3|EBE AFD|GFG FGA|dAG FED:|
Bee fee|aee fed|Bee fee|a2g fed|
Bee fee|aee fef|gfe d2A|BAG FGA|
Bee fee|aee fed|Bee fee|a2 g fef|
g3 gfe|def g2d|edc d2A|BAG FED|E6|

